img/icon/main_2.svg

<svg height="256" width="256" xmlns="http://www.w3.org/2000/svg" xmlns:xlink="http://www.w3.org/1999/xlink">
  <linearGradient id="a">
    <stop offset="0" stop-color="#a4c8f0"/>
    <stop offset="1" stop-color="#737ba6"/>
  </linearGradient>
  <linearGradient id="b" gradientTransform="matrix(.56229356 0 0 .51132301 -165.96851 19.789748)" gradientUnits="userSpaceOnUse" x1="326.68332" x2="721.24884" y1="-5.248622" y2="429.62204">
    <stop offset="0" stop-color="#fdffff"/>
    <stop offset="1" stop-color="#cfcfff"/>
  </linearGradient>
  <linearGradient id="c" gradientTransform="matrix(.56229356 0 0 .51132301 -165.96851 19.789748)" gradientUnits="userSpaceOnUse" x1="376.13055" x2="644.93158" xlink:href="#a" y1="-15.148117" y2="440.22864"/>
  <linearGradient id="d" gradientTransform="matrix(5.1313425 0 0 5.1318636 14.634185 -10.046704)" gradientUnits="userSpaceOnUse" x1="40.649776" x2="37.074421" xlink:href="#a" y1="-1.236028" y2="22.319952"/>
  <path d="m29.110092 2.5000097h179.980918l44.409 40.6250793v183.980901c0 14.67853-11.41828 26.39401-26.0968 26.39401h-198.293118c-14.678529 0-26.610092-11.93156-26.610092-26.61009v-198.293103c0-14.678523 11.931563-26.0967973 26.610092-26.0967973z" fill="url(#b)" stroke="url(#c)" stroke-width="5"/>
  <g fill-rule="evenodd">
    <path d="m125.68476 127.37872 46.98901-63.37872h-127.67377v-24h172.81835v28.614535l-85.45851 65.439935-48.394297 57.94553h127.210117l-.35132 24h-177.82434v-29.33006z" fill="#f00" fill-opacity=".822222"/>
    <path d="m33 24h24v56h-24z" fill-opacity=".327778"/>
    <path d="m33 24h12v56h-12z" fill-opacity=".716667"/>
    <path d="m-223 176h24v56h-24z" fill-opacity=".327778" transform="scale(-1 1)"/>
    <path d="m-223 176h12v56h-12z" fill-opacity=".716667" transform="scale(-1 1)"/>
    <path d="m68.897674 83h42.388716l78.03599 90h-42.38871z" fill="#49b7ff" fill-opacity=".65" stroke="#49b7ff" stroke-linecap="square" stroke-width="6"/>
  </g>
  <g transform="matrix(.76822714 0 0 .76822714 61.099497 -1.693574)">
    <path d="m252.3864 59.844395a56.20042 56.206127 0 0 1 -112.40084 0 56.20042 56.206127 0 1 1 112.40084 0z" fill-opacity=".392157" fill-rule="evenodd"/>
    <path d="m250.67595 56.667532a51.313425 51.318636 0 0 1 -102.62685 0 51.313425 51.318636 0 1 1 102.62685 0z" fill="#fff" fill-rule="evenodd" stroke="url(#d)" stroke-width="6.508492"/>
    <text font-family="Sans" font-size="85.273323" letter-spacing="0" transform="scale(.97407394 1.0266161)" word-spacing="0" x="180.84425" y="82.172478"><tspan x="180.84425" y="82.172478">2</tspan></text>
  </g>
</svg>

<?xml version="1.0" encoding="UTF-8" standalone="no"?>
<!-- Created with Inkscape (http://www.inkscape.org/) -->

<svg
   xmlns:dc="http://purl.org/dc/elements/1.1/"
   xmlns:cc="http://creativecommons.org/ns#"
   xmlns:rdf="http://www.w3.org/1999/02/22-rdf-syntax-ns#"
   xmlns:svg="http://www.w3.org/2000/svg"
   xmlns="http://www.w3.org/2000/svg"
   xmlns:xlink="http://www.w3.org/1999/xlink"
   version="1.1"
   width="256"
   height="256"
   id="svg2494">
  <defs
     id="defs2496">
    <linearGradient
       x1="17.51009"
       y1="8.6050844"
       x2="19.334143"
       y2="6.1806488"
       id="linearGradient3949"
       xlink:href="#linearGradient3157"
       gradientUnits="userSpaceOnUse"
       gradientTransform="matrix(2.0735682,0,0,2.0663791,-1.3083641,-4.661268)" />
    <linearGradient
       id="linearGradient3165">
      <stop
         id="stop3167"
         style="stop-color:#a4c8f0;stop-opacity:1"
         offset="0" />
      <stop
         id="stop3169"
         style="stop-color:#737ba6;stop-opacity:1"
         offset="1" />
    </linearGradient>
    <linearGradient
       x1="4"
       y1="3"
       x2="20"
       y2="22"
       id="linearGradient3171"
       xlink:href="#linearGradient3165-6"
       gradientUnits="userSpaceOnUse"
       gradientTransform="matrix(24.828898,0,0,21.104565,-567.8925,-472.33769)" />
    <linearGradient
       id="linearGradient3157">
      <stop
         id="stop3159"
         style="stop-color:#fdffff;stop-opacity:1"
         offset="0" />
      <stop
         id="stop3161"
         style="stop-color:#cfcfff;stop-opacity:1"
         offset="1" />
    </linearGradient>
    <linearGradient
       x1="5"
       y1="3"
       x2="20"
       y2="21"
       id="linearGradient3163"
       xlink:href="#linearGradient3157-4"
       gradientUnits="userSpaceOnUse"
       gradientTransform="matrix(24.828898,0,0,21.104565,-567.8925,-472.33769)" />
    <linearGradient
       x1="12.391796"
       y1="1.5373778"
       x2="20.721073"
       y2="7.7745237"
       id="linearGradient3304"
       xlink:href="#linearGradient3165"
       gradientUnits="userSpaceOnUse"
       gradientTransform="matrix(24.828898,0,0,21.104565,-67.892504,-472.33769)" />
    <filter
       color-interpolation-filters="sRGB"
       id="filter3312">
      <feGaussianBlur
         stdDeviation="0.93052244"
         id="feGaussianBlur3314" />
    </filter>
    <linearGradient
       x1="25.5"
       y1="13"
       x2="46.5"
       y2="13"
       id="linearGradient3895"
       xlink:href="#linearGradient3157-4"
       gradientUnits="userSpaceOnUse" />
    <linearGradient
       id="linearGradient3157-4">
      <stop
         id="stop3159-4"
         style="stop-color:#fdffff;stop-opacity:1"
         offset="0" />
      <stop
         id="stop3161-3"
         style="stop-color:#cfe2ff;stop-opacity:1"
         offset="1" />
    </linearGradient>
    <linearGradient
       x1="29.8125"
       y1="5.5625"
       x2="41.8125"
       y2="20.5625"
       id="linearGradient3873"
       xlink:href="#linearGradient3165-6"
       gradientUnits="userSpaceOnUse" />
    <linearGradient
       id="linearGradient3165-6">
      <stop
         id="stop3167-1"
         style="stop-color:#d1e6fd;stop-opacity:1"
         offset="0" />
      <stop
         id="stop3169-1"
         style="stop-color:#88a8d9;stop-opacity:1"
         offset="1" />
    </linearGradient>
    <linearGradient
       x1="41.727272"
       y1="5.3636355"
       x2="30.272728"
       y2="20.636364"
       id="linearGradient3982"
       xlink:href="#linearGradient3165-6"
       gradientUnits="userSpaceOnUse" />
    <linearGradient
       x1="41.727272"
       y1="5.3636355"
       x2="30.272728"
       y2="20.636364"
       id="linearGradient4699"
       xlink:href="#linearGradient3165-6"
       gradientUnits="userSpaceOnUse" />
    <linearGradient
       x1="326.68332"
       y1="-5.2486219"
       x2="721.24884"
       y2="429.62204"
       id="linearGradient5374"
       xlink:href="#linearGradient3157"
       gradientUnits="userSpaceOnUse"
       gradientTransform="matrix(1.0954643,0,0,0.99616319,-317.21155,-418.31601)" />
    <linearGradient
       x1="376.13055"
       y1="-15.148117"
       x2="644.93158"
       y2="440.22864"
       id="linearGradient5390"
       xlink:href="#linearGradient3165"
       gradientUnits="userSpaceOnUse"
       gradientTransform="matrix(1.0954643,0,0,0.99616319,-317.21155,-418.31601)" />
    <linearGradient
       x1="40.649776"
       y1="-1.2360277"
       x2="37.074421"
       y2="22.319952"
       id="linearGradient5393"
       xlink:href="#linearGradient3165"
       gradientUnits="userSpaceOnUse" />
    <linearGradient
       x1="40.649776"
       y1="-1.2360277"
       x2="37.074421"
       y2="22.319952"
       id="linearGradient3256"
       xlink:href="#linearGradient3165"
       gradientUnits="userSpaceOnUse"
       gradientTransform="matrix(5.1313425,0,0,5.1318636,14.634185,-10.046704)" />
    <linearGradient
       x1="326.68332"
       y1="-5.2486219"
       x2="721.24884"
       y2="429.62204"
       id="linearGradient3268"
       xlink:href="#linearGradient3157"
       gradientUnits="userSpaceOnUse"
       gradientTransform="matrix(0.56229356,0,0,0.51132301,-165.96851,19.789748)" />
    <linearGradient
       x1="376.13055"
       y1="-15.148117"
       x2="644.93158"
       y2="440.22864"
       id="linearGradient3270"
       xlink:href="#linearGradient3165"
       gradientUnits="userSpaceOnUse"
       gradientTransform="matrix(0.56229356,0,0,0.51132301,-165.96851,19.789748)" />
    <linearGradient
       x1="40.649776"
       y1="-1.2360277"
       x2="37.074421"
       y2="22.319952"
       id="linearGradient4136"
       xlink:href="#linearGradient3165"
       gradientUnits="userSpaceOnUse"
       gradientTransform="matrix(5.1313425,0,0,5.1318636,14.634185,-10.046704)" />
  </defs>
  <metadata
     id="metadata2499">
    <rdf:RDF>
      <cc:Work
         rdf:about="">
        <dc:format>image/svg+xml</dc:format>
        <dc:type
           rdf:resource="http://purl.org/dc/dcmitype/StillImage" />
        <dc:title></dc:title>
      </cc:Work>
    </rdf:RDF>
  </metadata>
  <path
     d="m 29.110092,2.5000097 179.980918,0 44.409,40.6250793 0,183.980901 c 0,14.67853 -11.41828,26.39401 -26.0968,26.39401 l -198.293118,0 C 14.431563,253.5 2.5,241.56844 2.5,226.88991 L 2.5,28.596807 C 2.5,13.918284 14.431563,2.5000097 29.110092,2.5000097 z"
     id="rect4858"
     style="fill:url(#linearGradient3268);fill-opacity:1;stroke:url(#linearGradient3270);stroke-width:5;stroke-miterlimit:4;stroke-opacity:1;stroke-dasharray:none" />
  <path
     d="M 125.68476,127.37872 172.67377,64 45,64 l 0,-24 172.81835,0 0,28.614535 L 132.35984,134.05447 83.965543,192 211.17566,192 210.82434,216 33,216 33,186.66994 z"
     id="path3330"
     style="fill:#ff0000;fill-opacity:0.82222224;fill-rule:evenodd;stroke:none" />
  <rect
     width="24"
     height="56"
     x="33"
     y="24"
     id="rect3316"
     style="fill:#000000;fill-opacity:0.32777788;fill-rule:evenodd;stroke:none" />
  <rect
     width="12"
     height="56"
     x="33"
     y="24"
     id="rect3318"
     style="fill:#000000;fill-opacity:0.71666721;fill-rule:evenodd;stroke:none" />
  <rect
     width="24"
     height="56"
     x="-223"
     y="176"
     transform="scale(-1,1)"
     id="rect3326"
     style="fill:#000000;fill-opacity:0.32777788;fill-rule:evenodd;stroke:none" />
  <rect
     width="12"
     height="56"
     x="-223"
     y="176"
     transform="scale(-1,1)"
     id="rect3328"
     style="fill:#000000;fill-opacity:0.71666721;fill-rule:evenodd;stroke:none" />
  <path
     d="m 68.897674,83 42.388716,0 78.03599,90 -42.38871,0 z"
     id="rect3355"
     style="fill:#49b7ff;fill-opacity:0.65;fill-rule:evenodd;stroke:#49b7ff;stroke-width:6;stroke-linecap:square;stroke-linejoin:miter;stroke-miterlimit:4;stroke-opacity:1;stroke-dasharray:none;stroke-dashoffset:0" />
  <g
     transform="matrix(0.76822714,0,0,0.76822714,61.099497,-1.6935743)"
     id="g4130">
    <path
       d="m 252.3864,59.844395 a 56.20042,56.206127 0 0 1 -112.40084,0 56.20042,56.206127 0 1 1 112.40084,0 z"
       id="path5395"
       style="fill:#000000;fill-opacity:0.39215686;fill-rule:evenodd;stroke:none;display:inline" />
    <path
       d="m 250.67595,56.667532 a 51.313425,51.318636 0 0 1 -102.62685,0 51.313425,51.318636 0 1 1 102.62685,0 z"
       id="path3093"
       style="fill:#ffffff;fill-opacity:1;fill-rule:evenodd;stroke:url(#linearGradient4136);stroke-width:6.50849199;stroke-linecap:butt;stroke-linejoin:miter;stroke-miterlimit:4;stroke-opacity:1;stroke-dasharray:none;display:inline" />
    <text
       x="180.84425"
       y="82.172478"
       transform="scale(0.97407394,1.0266161)"
       id="text3863"
       xml:space="preserve"
       style="font-size:85.27332306px;font-style:normal;font-variant:normal;font-weight:normal;font-stretch:normal;text-align:start;line-height:125%;letter-spacing:0px;word-spacing:0px;writing-mode:lr-tb;text-anchor:start;fill:#000000;fill-opacity:1;stroke:none;display:inline;font-family:Sans;-inkscape-font-specification:Sans"><tspan
         x="180.84425"
         y="82.172478"
         id="tspan3865">2</tspan></text>
  </g>
</svg>
